X:1
T:Ombyggnaden
R:polska
Z:2007-10-01
O:Bingsj, Dalarna
M:3/4
L:1/16
K:A
e2|:a4 efed cdcB|ABAG G2A2 A4|A,CEA DFAd EGBe|Acea g2f2 e4|
a3a g2f2 e4|f3f d2d2 c4|e2fe d2ed c2dc|1 B2AG A6 e2:|2 B2AG A8|
|:e2ce a2c'2 c'4|e2fe d2ed c4|d3e f2f2 e4|a2ga b2b2 a2a2|g2ag f2f2 e4|
f3f d2d2 c4|e2fe d2ed c2dc|B2AG A8:|
